markets/OP.svg

<svg width="42" height="42" viewBox="0 0 42 42" fill="none" xmlns="http://www.w3.org/2000/svg">
<path d="M21 42C32.598 42 42 32.598 42 21C42 9.40202 32.598 0 21 0C9.40202 0 0 9.40202 0 21C0 32.598 9.40202 42 21 42Z" fill="#FF0420"/>
<path d="M15.2307 26.8801C13.9641 26.8801 12.9263 26.5752 12.1173 25.9654C11.3191 25.3448 10.9199 24.4628 10.9199 23.3194C10.9199 23.0799 10.9466 22.7859 10.9997 22.4374C11.1382 21.6535 11.335 20.7116 11.5905 19.6118C12.3142 16.6173 14.1823 15.1201 17.1946 15.1201C18.0141 15.1201 18.7486 15.2617 19.3978 15.5448C20.0471 15.817 20.558 16.2308 20.9305 16.7861C21.3031 17.3306 21.4894 17.9839 21.4894 18.7461C21.4894 18.9748 21.4628 19.2633 21.4095 19.6118C21.2499 20.5809 21.0583 21.5228 20.8348 22.4374C20.4622 23.9292 19.8183 25.0453 18.9029 25.7858C17.9875 26.5153 16.7635 26.8801 15.2307 26.8801ZM15.4542 24.5281C16.0503 24.5281 16.5559 24.3484 16.971 23.9891C17.3967 23.6298 17.7001 23.0799 17.8811 22.3394C18.1259 21.3159 18.3122 20.423 18.4399 19.6608C18.4824 19.4321 18.5037 19.198 18.5037 18.9584C18.5037 17.9675 17.9982 17.4721 16.987 17.4721C16.3909 17.4721 15.88 17.6518 15.4542 18.0111C15.0391 18.3704 14.7411 18.9204 14.5601 19.6608C14.3685 20.3904 14.1769 21.2832 13.9854 22.3394C13.9428 22.5572 13.9215 22.7859 13.9215 23.0254C13.9215 24.0272 14.4324 24.5281 15.4542 24.5281Z" fill="white"/>
<path d="M22.2225 26.7166C22.1054 26.7166 22.015 26.6785 21.951 26.6022C21.8979 26.5151 21.8819 26.4171 21.9031 26.3082L24.1065 15.6916C24.1277 15.5718 24.1863 15.4738 24.2821 15.3976C24.3779 15.3213 24.479 15.2832 24.5854 15.2832H28.8324C30.0138 15.2832 30.9611 15.5337 31.6743 16.0346C32.3981 16.5355 32.76 17.2596 32.76 18.2069C32.76 18.4791 32.7281 18.7622 32.6642 19.0562C32.3981 20.3085 31.8606 21.234 31.0516 21.8329C30.2533 22.4318 29.157 22.7312 27.7627 22.7312H25.6072L24.8728 26.3082C24.8515 26.428 24.793 26.526 24.6972 26.6022C24.6014 26.6785 24.5003 26.7166 24.3938 26.7166H22.2225ZM27.8744 20.4773C28.3214 20.4773 28.7099 20.352 29.04 20.1016C29.3805 19.8511 29.604 19.4918 29.7105 19.0236C29.7424 18.8385 29.7584 18.6751 29.7584 18.5336C29.7584 18.2178 29.6679 17.9783 29.487 17.8149C29.306 17.6407 28.9974 17.5536 28.5609 17.5536H26.645L26.0383 20.4773H27.8744Z" fill="white"/>
</svg>

<svg xmlns="http://www.w3.org/2000/svg" width="42" height="42" fill="none"><path fill="#FF0420" d="M21 42c11.598 0 21-9.402 21-21S32.598 0 21 0 0 9.402 0 21s9.402 21 21 21Z"/><path fill="#fff" d="M15.23 26.88c-1.266 0-2.304-.305-3.113-.915-.798-.62-1.197-1.502-1.197-2.646 0-.24.027-.533.08-.882a55.29 55.29 0 0 1 .59-2.825c.724-2.995 2.592-4.492 5.605-4.492.82 0 1.554.142 2.203.425.65.272 1.16.686 1.532 1.241.373.545.56 1.198.56 1.96 0 .229-.027.517-.08.866-.16.969-.352 1.91-.575 2.825-.373 1.492-1.017 2.608-1.932 3.349-.915.73-2.14 1.094-3.672 1.094Zm.224-2.352c.596 0 1.102-.18 1.517-.539.426-.36.73-.91.91-1.65.245-1.023.431-1.916.559-2.678.042-.229.064-.463.064-.703 0-.99-.506-1.486-1.517-1.486-.596 0-1.107.18-1.533.54-.415.358-.713.908-.894 1.649-.192.73-.383 1.622-.575 2.678a3.568 3.568 0 0 0-.063.686c0 1.002.51 1.503 1.532 1.503ZM22.223 26.717a.335.335 0 0 1-.272-.115.4.4 0 0 1-.048-.294l2.204-10.616a.469.469 0 0 1 .175-.294.48.48 0 0 1 .303-.115h4.247c1.182 0 2.13.25 2.842.752.724.5 1.086 1.225 1.086 2.172 0 .272-.032.555-.096.85-.266 1.252-.803 2.177-1.612 2.776-.799.599-1.895.898-3.29.898h-2.155l-.734 3.577a.47.47 0 0 1-.176.294.48.48 0 0 1-.303.115h-2.171Zm5.651-6.24c.447 0 .836-.125 1.166-.375.34-.25.564-.61.67-1.078.032-.186.048-.349.048-.49 0-.316-.09-.556-.271-.72-.181-.173-.49-.26-.926-.26h-1.916l-.607 2.923h1.836Z"/></svg>
